X: 17674
T: Holly Bush, The
R: jig
M: 6/8
K: Gmajor
D|:BAG G2D|GFG ABc|BAG edc|B/c/dB cBA|
BAG G2D|G2 G ABc|BAG edB|def g2d:|
|:gdd gdd|gdd dcB|Acc Acc|Acc cBA|
B2 B cdc|BAG Fdc|BAG edB|1 def g2d:|2 def g2D|

